X: 20288
T: Joey's Delight
R: reel
M: 4/4
K: Edorian
K:Eb
|:AcFG AFcF|AFce BGEG|AcFG Acfd|ecBG F2FG|
AcFG AFcF|eFce BGEG|FGAB ceec|1 ecBG F2FG:|2 ecBG F2G/A/B||
cffg a2ba|gebe gefe|c/d/efg a2c'a|baga fgfe|
c/d/efg a2ba|gecd efgb|a/g/fge fgec|BAGE F2AB|
cffg a2ba|geed efgb|agfe cBce|f/g/aga fcfg|
a2ga fecB|A2GA FEC2|FGAB ceec|ecBG F2FG||

